X: 13870
T: Fox Chase, The
R: jig
M: 6/8
K: Gmajor
BG G2 AG G2|BG G2 AG G2|BG G2 AG G2|BG G2 AG G2|
BG G2 AG G2|BG G2 AG G2|BG G2 AG G2|BG G2 AGGE|
DEGA BG G2|AG G2 BG G2|AGBG cGBG|A2 A2 G2 (3def|
gagf gfed|edBG A2 GE|GABG AGAB|G4 G2|
a|bg g2 ag g2|bg g2 ag g2|bg g2 ag g2|bg g2 ag g2|
bg g2 ag g2|bg g2 ag g2|bg g2 ag g2|bg g2 agge|
dega bg g2|ag g2 bg g2|agbg c'3b|a2 a2 g4|
gagf gfed|edBG A2 GE|GABG AGAB|G4 G2|
A|DEGA BG G2|AG G2 BG G2|DEGA BG G2|BGcG AGEG|
DEGA BG G2|AG G2 BG G2|DEGA BG G2|cABG AGEG|
G3A BG G2|AG G2 BG G2|DEGA BG G2|cABG AGEG|
DEGA BG G2|AG G2 BG G2|DEGA BG G2|cABG AGEG|
G3A BG G2|AG G2 BG G2|GFGA Bdge|dBGB A2 GE|
G3A BG G2|AG G2 BG G2|GFGA Bdge|dBGB A2 GE|
G3A BG G2|AG G2 BG G2|GFGA Bdge|dBGB A2 GE|
g3a bg g2|dg g2 bg g2|gfga gfed|edgB AG G2|
g3a bg g2|dg g2 bg g2|gfga gfed|aged edgB|
g3a bg g2|dg g2 bg g2|gfga gfed|edgB AG G2|
g3a bg g2|dg g2 bg g2|gfga gfed|aged edgB|
DEGA BG G2|bg g2 ag b2|DEGA BG G2|g3e fdcA|
DEGA BG G2|bg g2 ag b2|DEGA BG G2|g3e fdcA|
A4 A4|A4 A4|A4 A4|A4 A4|
A4 A4|A4 A4|A4 A4|A4 A4|

